front/main/app/symbols/infobox-builder/image-block.svg

<svg width="30px" height="28px" viewBox="0 0 30 28" version="1.1"
     xmlns="http://www.w3.org/2000/svg">
    <g stroke="none" stroke-width="1" fill-rule="evenodd">
        <g transform="translate(-159.000000, -543.000000)">
            <g transform="translate(159.000000, 543.000000)">
                <path d="M27.5,14.830875 L22.05,10.289625 C21.52375,9.853375 20.74625,9.917125 20.30125,10.437125 L13.5875,18.269625 L8.28125,14.023375 C7.82375,13.659625 7.17625,13.659625 6.71875,14.023375 L2.5,17.398375 L2.5,2.499625 L27.5,2.499625 L27.5,14.830875 Z M28.75,-0.000375000001 L1.25,-0.000375000001 C0.56,-0.000375000001 0,0.559625 0,1.249625 L0,26.249625 C0,26.940875 0.56,27.499625 1.25,27.499625 L28.75,27.499625 C29.44,27.499625 30,26.940875 30,26.249625 L30,1.249625 C30,0.559625 29.44,-0.000375000001 28.75,-0.000375000001 L28.75,-0.000375000001 Z"/>
                <path d="M12.5,12.5 C14.5675,12.5 16.25,10.8175 16.25,8.75 C16.25,6.6825 14.5675,5 12.5,5 C10.4325,5 8.75,6.6825 8.75,8.75 C8.75,10.8175 10.4325,12.5 12.5,12.5"/>
            </g>
        </g>
    </g>
</svg>

<svg width="30" height="28" viewBox="0 0 30 28" xmlns="http://www.w3.org/2000/svg"><g fill-rule="evenodd"><path d="M27.5 14.83l-5.45-4.54c-.526-.437-1.304-.373-1.75.147l-6.713 7.833-5.306-4.247c-.456-.363-1.104-.363-1.56 0L2.5 17.398V2.5h25v12.33zM28.75 0H1.25C.56 0 0 .56 0 1.25v25c0 .69.56 1.25 1.25 1.25h27.5c.69 0 1.25-.56 1.25-1.25v-25C30 .56 29.44 0 28.75 0z"/><path d="M12.5 12.5c2.068 0 3.75-1.682 3.75-3.75C16.25 6.683 14.568 5 12.5 5S8.75 6.683 8.75 8.75c0 2.068 1.682 3.75 3.75 3.75"/></g></svg>
